X:1
T:6 Lieder, Op.48
T:Vom Tode
T:6 Lieder, Op.48
T:3. Vom Tode
T:Ludwig van Beethoven
T:Christian Fürchtegott Gellert
T:OpenScore (CC0)
T:OpenScore (CC0)
C:Ludwig van Beethoven
Z:Christian Fürchtegott Gellert
Z:OpenScore (CC0)
%%score 1 { ( 2 4 ) | ( 3 5 ) }
L:1/8
Q:1/4=80
M:3/4
K:A
V:1 treble nm="Singstimme\nVoice"
V:2 treble nm="Pianoforte"
V:4 treble 
V:3 bass 
V:5 bass 
V:1
"^Mässig und eher langsam als geschwind" z6 |: F4 F2 | F4 F2 | F4 F2 | =G6 | =G4 G2 | =G4 G2 | %7
w: |Mei- ne|Le- bens-|zeit ver-|streicht,|stünd- lich|eil' ich|
 =c4 B2 | B4 ^A2 | z2 ^A2 A2 | e4 f2 | =g4 ^A2 | (^A4 B2) | z2 B2 B2 | ^B4 B2 | ^B4 B2 | c4 C2 | %17
w: zu dem|Gra- be,|und was|ist's, das|ich viel-|leicht, *|das ich|noch zu|le- ben|ha- be?|
 z6 | z6 | z6 | z6 | C4 C2 | F4 G2 | A4 F2 | C6 | ^E4 E2 | ^E4 E2 | ^E4 E2 | F6 | =G4 G2 | =G6- | %31
w: ||||Denk', o|Mensch, an|dei- nen|Tod!|Säu- me|nicht, denn|Eins ist|Noth.|Säu- me|nicht,|
 G4 F2 | c6 | C6 | D6 | F4 F2 | =G6- | G4 F2 | c6 | C6 | F6 | z6 | z6 | z6 | z6 | z6 | z6 | z6 | %48
w: _ denn|Eins|ist|Noth.|Säu- me|nicht,|_ denn|Eins|ist|Noth.||||||||
 !fermata!z6 :| %49
w: |
V:2
!p! [A,CF]6 |:!pp! (.F4 .F2) | (.F4 .F2) | (.F4 .F2) | [F=G]4 [FG]2 | [F=G]4 [FG]2 | [E=G]4 [EG]2 | %7
 [E=G=c]4 [EGB]2 | [E=GB]4 [EG^A]2 |!<(! z2 [^A,^A]2 [A,A]2!<)! |!f! ([Ee]4 [Ff]2) | %11
 ([=G=g]4 [^A,^A]2) | ([^A,^A]4 [B,B]2) |!p! z2 [B,B]2 [B,B]2 |"_cresc." [^B,^B]4 [FB]2 | %15
 [G^B]4 [AB]2 |!f! [^Ec]4 C2 |!p! (.C4 .C2) | (F4 G2) | (A4 F2 | ^E4 C2) | C4 C2 | F4 G2 | A4 F2 | %24
 C6 | [G,C^E]4 [G,CE]2 |"_cresc." [G,D^E]4 [G,DE]2 | [G,D^E]4 [G,DE]2 | [A,CF]6 | %29
 [^A,CE=G]4 [A,CEG]2 | [^A,CE=G]6- |!mp! [A,CEG]4 [B,DF]2 | [=A,CF]6 | ^E6 | [F,A,F]6 | %35
"_cresc." [A,=CF]4 [A,CF]2 | [_B,^C=G-]6 | [=B,DG]4!mp! [A,^B,F]2 |!p! [A,CF]6 | [G,C^E]6 | %40
 [A,CF]6 | z2 z2 [B,D]2 | C6 | z6 | z6 | z6 | z6 | z6 | z6 :| %49
V:3
 [F,,A,,C,F,]6 |: z6 | z6 | z6 | z6 | z6 | z6 | [E,=G,]4 [E,G,]2 | [^C,E,=G,]4 [C,E,G,]2 | %9
 [C,E,=G,]4 [C,E,G,]2 | [C,E,=G,^A,]4 [C,E,G,A,]2 | [C,E,=G,^A,]4 [C,E,G,]2 | [D,F,]4 [D,F,]2 | %13
 [D,F,]4 [D,F,]2 | [D,F,]4 [D,A,]2 | [D,G,]4 [D,F,]2 | [C,G,]4 C,2 | C,4 C,2 | %18
 [F,,C,F,]4 [G,,C,G,]2 | [A,,C,A,]4 [F,,C,F,]2 | [^E,,C,^E,]4 [C,,C,]2 | [C,,C,]4 [C,,C,]2 | %22
 [F,,C,F,]4 [G,,C,G,]2 | [A,,C,A,]4 [F,,C,F,]2 | [C,,C,]4 [C,,C,]2 | [C,,C,]4 [C,,C,]2 | %26
 [B,,,B,,]4 [B,,,B,,]2 | [B,,,B,,]4 [B,,,B,,]2 | [A,,,A,,]4 [A,,,A,,]2 | %29
!f! [^A,,,^A,,]4 [A,,,A,,]2 |!>(! [^A,,,^A,,]4 [A,,,A,,]2!>)! | [^A,,,^A,,]4 [B,,,B,,]2 | %32
!p! [C,,C,]4 [C,,C,]2 | [C,,C,]4 [C,,C,]2 | [D,,D,]4 [D,,D,]2 | [D,,D,]4 [D,,D,]2 | %36
 [D,,D,]4 [D,,D,]2 | [D,,D,]4 [D,,D,]2 | [C,,C,]4 [C,,C,]2 | [C,,C,]4 [C,,C,]2 | [F,,,F,,]4 F,,,2 | %41
 F,,,4 ((([^E,G,]2 | [F,A,]6))) | z2 z2 (([D,^E,G,B,]2 | [C,F,A,]6)) | z2 z2 (([B,,D,^E,G,]2 | %46
 [A,,C,F,]4)) [A,,C,F,]2 | (.[A,,C,F,]4 .[A,,C,F,]2) | !fermata![A,,C,F,]6 :| %49
V:4
 x6 |: x6 | x6 | x6 | x6 | x6 | x6 | x6 | x6 | x6 | x6 | x6 | x6 | x6 | x6 | x6 | x6 | x6 | x6 | %19
 x6 | x6 | x6 | x6 | x6 | x6 | x6 | x6 | x6 | x6 | x6 | x6 | x6 | x6 | [G,C]4 B,2 | x6 | x6 | x6 | %37
 x6 | x6 | x6 | x6 | x6 | x6 | x6 | x6 | x6 | x6 | x6 | x6 :| %49
V:5
 x6 |: x6 | x6 | x6 | x6 | x6 | x6 | x6 | x6 | x6 | x6 | x6 | x6 | x6 | x6 | x6 | x6 | x6 | x6 | %19
 x6 | x6 | x6 | x6 | x6 | x6 | x6 | x6 | x6 | x6 | x6 | x6 | x6 | x6 | x6 | x6 | x6 | x6 | x6 | %38
 x6 | x6 | x6 | x4 F,,,2 | F,,,4 F,,,2 | F,,,4 F,,,2 | F,,,4 F,,,2 | F,,,4 F,,,2 | F,,,4 F,,2 | %47
 [C,,F,,]4 [A,,,F,,]2 | !fermata![F,,,F,,]6 :| %49

